images/smartphone-icon.svg

<?xml version="1.0" encoding="UTF-8"?>
<svg width="40px" height="75px" viewBox="0 0 40 75" version="1.1" xmlns="http://www.w3.org/2000/svg" xmlns:xlink="http://www.w3.org/1999/xlink">
    <!-- Generator: sketchtool 41.2 (35397) - http://www.bohemiancoding.com/sketch -->
    <title>3679190B-ADBC-486B-99CD-36831F999CDF</title>
    <desc>Created with sketchtool.</desc>
    <defs></defs>
    <g id="Comps" stroke="none" stroke-width="1" fill="none" fill-rule="evenodd">
        <g id="Colonial-Life" transform="translate(-703.000000, -2481.000000)" fill="#FFFFFF">
            <g id="Stats" transform="translate(-4.000000, 527.000000)">
                <g id="Colonial-Life-Stats" transform="translate(1.000000, 1110.000000)">
                    <g id="Group-5" transform="translate(106.000000, 778.000000)">
                        <g id="smartphone(1)" transform="translate(600.000000, 66.000000)">
                            <g id="Capa_1">
                                <path d="M35.8321957,0 L3.36640435,0 C1.5936913,0 0.155152174,1.44175532 0.155152174,3.21941489 L0.155152174,71.1965426 C0.155152174,72.9742021 1.5936913,74.4151596 3.36640435,74.4151596 L35.8321957,74.4151596 C37.6057043,74.4151596 39.0434478,72.9734043 39.0434478,71.1965426 L39.0434478,3.21941489 C39.0434478,1.44175532 37.6057043,0 35.8321957,0 Z M16.8574826,3.93590426 L22.3427087,3.93590426 C22.5280957,3.93590426 22.6768826,4.08590426 22.6768826,4.27101064 C22.6768826,4.45531915 22.5273,4.60611702 22.3427087,4.60611702 L16.8574826,4.60611702 C16.6720957,4.60611702 16.5233087,4.45531915 16.5233087,4.27101064 C16.522513,4.08590426 16.6713,3.93590426 16.8574826,3.93590426 Z M19.5993,71.5085106 C18.4424217,71.5085106 17.5035522,70.5662234 17.5035522,69.4069149 C17.5035522,68.2460106 18.4424217,67.3045213 19.5993,67.3045213 C20.7569739,67.3045213 21.6950478,68.2460106 21.6950478,69.4069149 C21.6958435,70.5662234 20.7569739,71.5085106 19.5993,71.5085106 Z M35.9555217,65.1135638 L3.24307826,65.1135638 L3.24307826,9.30159574 L35.9547261,9.30159574 L35.9555217,65.1135638 L35.9555217,65.1135638 Z" id="Shape"></path>
                            </g>
                        </g>
                    </g>
                </g>
            </g>
        </g>
    </g>
</svg>

<svg width="40" height="75" viewBox="0 0 40 75" xmlns="http://www.w3.org/2000/svg"><title>3679190B-ADBC-486B-99CD-36831F999CDF</title><path d="M35.832 0H3.366a3.216 3.216 0 0 0-3.21 3.22v67.977a3.215 3.215 0 0 0 3.21 3.218h32.466a3.215 3.215 0 0 0 3.211-3.218V3.219A3.216 3.216 0 0 0 35.833 0zM16.857 3.936h5.486a.335.335 0 0 1 0 .67h-5.486a.335.335 0 0 1 0-.67zM19.6 71.509a2.1 2.1 0 0 1-2.095-2.102 2.1 2.1 0 0 1 2.095-2.102 2.1 2.1 0 0 1 2.096 2.102 2.1 2.1 0 0 1-2.096 2.102zm16.357-6.395H3.243V9.302h32.712v55.812z" fill="#FFF" fill-rule="evenodd"/></svg>
